src/img/img_support.svg

<svg width="26" height="21" viewBox="0 0 26 26" fill="none" xmlns="http://www.w3.org/2000/svg">
<path d="M13.4336 13C13.4336 12.5703 13.5508 12.1797 13.7461 11.8281C13.5508 11.7891 13.3555 11.75 13.1602 11.75H12.4961C11.6367 12.1797 10.6992 12.375 9.68359 12.375C8.66797 12.375 7.69141 12.1797 6.83203 11.75H6.16797C3.27734 11.75 0.933594 14.1328 0.933594 17.0234V18.625C0.933594 19.6797 1.75391 20.5 2.80859 20.5H13.7461C13.5508 20.1484 13.4336 19.7188 13.4336 19.25V13ZM9.68359 10.5C12.418 10.5 14.6836 8.27344 14.6836 5.5C14.6836 2.76562 12.418 0.5 9.68359 0.5C6.91016 0.5 4.68359 2.76562 4.68359 5.5C4.68359 8.27344 6.91016 10.5 9.68359 10.5ZM24.6836 11.75H23.4336V9.875C23.4336 8.15625 22.0273 6.75 20.3086 6.75C18.5508 6.75 17.1836 8.15625 17.1836 9.875V11.75H15.9336C15.2305 11.75 14.6836 12.3359 14.6836 13V19.25C14.6836 19.9531 15.2305 20.5 15.9336 20.5H24.6836C25.3477 20.5 25.9336 19.9531 25.9336 19.25V13C25.9336 12.3359 25.3477 11.75 24.6836 11.75ZM21.5586 11.75H19.0586V9.875C19.0586 9.21094 19.6055 8.625 20.3086 8.625C20.9727 8.625 21.5586 9.21094 21.5586 9.875V11.75Z" fill="#617083"/>
</svg>

<svg width="26" height="21" viewBox="0 0 26 26" fill="none" xmlns="http://www.w3.org/2000/svg"><path d="M13.43 13c0-.43.12-.82.32-1.17-.2-.04-.4-.08-.59-.08h-.66a6.2 6.2 0 01-2.82.63c-1.01 0-1.99-.2-2.85-.63h-.66a5.27 5.27 0 00-5.24 5.27v1.6c0 1.06.82 1.88 1.88 1.88h10.94c-.2-.35-.32-.78-.32-1.25V13zm-3.75-2.5a5.01 5.01 0 000-10 5.01 5.01 0 000 10zm15 1.25h-1.25V9.87c0-1.71-1.4-3.12-3.12-3.12a3.1 3.1 0 00-3.13 3.13v1.87h-1.25c-.7 0-1.25.59-1.25 1.25v6.25c0 .7.55 1.25 1.25 1.25h8.75c.67 0 1.25-.55 1.25-1.25V13c0-.66-.58-1.25-1.25-1.25zm-3.12 0h-2.5V9.87c0-.66.55-1.24 1.25-1.24.66 0 1.25.58 1.25 1.24v1.88z" fill="#617083"/></svg>
